X: 10051
T: HEY JENNY COME DOWN TO JOCK
Q: "Lively"
%R: jig
B: "Edinburgh Repository of Music" v.1 p.5 #1
F: http://digital.nls.uk/special-collections-of-printed-music/pageturner.cfm?id=87776133
Z: 2015 John Chambers <jc:trillian.mit.edu>
M: 6/8
L: 1/8
K: F
|:\
F2F GAc | dcA G2A |\
F2F GA^c | d^cd D3 :|\
|: d/e/ |\
fed gfe | fed cde |\
fga cAF | G2A D3 :|

%%sep 2 1 500
%%sep 1 1 500

